microsoft-teams.svg

<svg fill="currentColor" viewBox="0 0 24 24"><path d="M19.19 8.77q-.46 0-.86-.17-.39-.17-.69-.47t-.47-.69q-.17-.4-.17-.86 0-.45.17-.85t.47-.69q.3-.3.69-.47.4-.18.86-.17.45-.01.85.17.4.17.7.47.29.29.47.69.17.4.17.85 0 .46-.17.86-.17.39-.47.69t-.7.47-.85.17m0-3.12q-.39 0-.69.27-.25.27-.25.66t.25.67q.3.25.69.25t.66-.25q.28-.25.28-.67 0-.39-.28-.66-.27-.27-.66-.27M22 10.33V15q0 .63-.24 1.2-.26.57-.67.99-.43.43-1 .67-.59.25-1.21.25-.38 0-.76-.11-.39-.07-.71-.25-.24.79-.71 1.44t-1.1 1.11-1.39.7q-.76.27-1.58.27-.96 0-1.81-.33-.82-.33-1.5-.94-.66-.57-1.09-1.36-.44-.8-.57-1.74H2.83q-.33 0-.59-.25-.24-.24-.24-.58V7.73q0-.34.24-.59.26-.24.59-.24H10q-.29-.6-.29-1.25 0-.61.23-1.15.22-.5.62-.92.4-.39.94-.62.5-.23 1.12-.23.61 0 1.14.23t.93.62q.4.42.62.92.23.54.23 1.15 0 .6-.23 1.14-.22.53-.62.92-.4.4-.93.63t-1.14.23q-.15 0-.31-.02-.15-.02-.31-.05v.9h9.06q.39 0 .67.27.27.27.27.66M12.63 4q-.35 0-.63.11-.33.13-.56.36-.22.23-.35.53-.13.31-.13.65 0 .35.13.65t.35.53q.23.22.56.36.28.13.63.13.34 0 .64-.13.3-.14.53-.36.23-.23.36-.53.14-.3.14-.65 0-.34-.14-.65-.13-.3-.36-.53t-.53-.36q-.3-.11-.64-.11m-4.85 6.18h1.88V8.62H4.34v1.56h1.88v5h1.56m8.6 1.09v-5.62H12v5.42q0 .34-.24.58-.26.25-.59.25H8.92q.13.67.47 1.25.34.57.82.99.48.41 1.1.65.61.21 1.32.21.77 0 1.45-.27.68-.3 1.2-.81.51-.51.8-1.19.3-.68.3-1.46M20.75 15v-4.35h-3.12v5.71q.25.25.57.38.3.12.68.12.39 0 .73-.15t.59-.4q.26-.25.4-.6.15-.34.15-.71"/></svg>

<svg  viewBox="0 0 24 24" fill="currentColor"><path  d="M19.19 8.77Q18.73 8.77 18.33 8.6 17.94 8.43 17.64 8.13 17.34 7.83 17.17 7.44 17 7.04 17 6.58 17 6.13 17.17 5.73 17.34 5.33 17.64 5.04 17.94 4.74 18.33 4.57 18.73 4.39 19.19 4.4 19.64 4.39 20.04 4.57 20.44 4.74 20.74 5.04 21.03 5.33 21.21 5.73 21.38 6.13 21.38 6.58 21.38 7.04 21.21 7.44 21.04 7.83 20.74 8.13 20.44 8.43 20.04 8.6 19.64 8.77 19.19 8.77M19.19 5.65Q18.8 5.65 18.5 5.92 18.25 6.19 18.25 6.58 18.25 6.97 18.5 7.25 18.8 7.5 19.19 7.5 19.58 7.5 19.85 7.25 20.13 7 20.13 6.58 20.13 6.19 19.85 5.92 19.58 5.65 19.19 5.65M22 10.33V15Q22 15.63 21.76 16.2 21.5 16.77 21.09 17.19 20.66 17.62 20.09 17.86 19.5 18.11 18.88 18.11 18.5 18.11 18.12 18 17.73 17.93 17.41 17.75 17.17 18.54 16.7 19.19 16.23 19.84 15.6 20.3 14.97 20.76 14.21 21 13.45 21.27 12.63 21.27 11.67 21.27 10.82 20.94 10 20.61 9.32 20 8.66 19.43 8.23 18.64 7.79 17.84 7.66 16.9H2.83Q2.5 16.9 2.24 16.65 2 16.41 2 16.07V7.73Q2 7.39 2.24 7.14 2.5 6.9 2.83 6.9H10Q9.71 6.3 9.71 5.65 9.71 5.04 9.94 4.5 10.16 4 10.56 3.58 10.96 3.19 11.5 2.96 12 2.73 12.62 2.73 13.23 2.73 13.76 2.96 14.29 3.19 14.69 3.58 15.09 4 15.31 4.5 15.54 5.04 15.54 5.65 15.54 6.25 15.31 6.79 15.09 7.32 14.69 7.71 14.29 8.11 13.76 8.34 13.23 8.57 12.62 8.57 12.47 8.57 12.31 8.55 12.16 8.53 12 8.5V9.4H21.06Q21.45 9.4 21.73 9.67 22 9.94 22 10.33M12.63 4Q12.28 4 12 4.11 11.67 4.24 11.44 4.47 11.22 4.7 11.09 5 10.96 5.31 10.96 5.65 10.96 6 11.09 6.3 11.22 6.6 11.44 6.83 11.67 7.05 12 7.19 12.28 7.32 12.63 7.32 12.97 7.32 13.27 7.19 13.57 7.05 13.8 6.83 14.03 6.6 14.16 6.3 14.3 6 14.3 5.65 14.3 5.31 14.16 5 14.03 4.7 13.8 4.47 13.57 4.24 13.27 4.11 12.97 4 12.63 4M7.78 10.18H9.66V8.62H4.34V10.18H6.22V15.18H7.78M16.38 16.27V10.65H12V16.07Q12 16.41 11.76 16.65 11.5 16.9 11.17 16.9H8.92Q9.05 17.57 9.39 18.15 9.73 18.72 10.21 19.14 10.69 19.55 11.31 19.79 11.92 20 12.63 20 13.4 20 14.08 19.73 14.76 19.43 15.28 18.92 15.79 18.41 16.08 17.73 16.38 17.05 16.38 16.27M20.75 15V10.65H17.63V16.36Q17.88 16.61 18.2 16.74 18.5 16.86 18.88 16.86 19.27 16.86 19.61 16.71 19.95 16.56 20.2 16.31 20.46 16.06 20.6 15.71 20.75 15.37 20.75 15Z"/></svg>
